X:1
T:23
%%score { ( 1 2 ) | ( 3 4 ) }
L:1/8
M:2/4
K:F
V:1 treble 
V:2 treble 
V:3 bass 
V:4 bass 
V:1
 z2 F2 | F2 E2 | D2 C2 | F2 G2 | A4 | z2 F2 | A2 B2 | c2 A2 | B2 G2 | F4 | z2 c2 | A2 =B2 | c2 d2 | %13
 c2 =B2 | c4 | z2 c2 | A2 F2 | G2 E2 | F2 D2 | C4 | F4 | G4 | F4 |] %23
V:2
 z2 C2 | D2 C2 | B,2 A,2 | D2 E2 | F4 | z2 F2 | F2 F2 | G2 F2 | D2 E2 | F4 | z2 G2 | F2 G2 | %12
 G2 F2 | E2 D2 | E4 | z2 C2 | C2 D2 | D2 C2 | C2 B,2 | G,4 | C4 | (=B,2 C2) | A,4 |] %23
V:3
 z2 A,2 | A,2 A,2 | F,2 F,2 | A,2 C2 | [F,C]4 | z2 A,2 | C2 D2 | C2 C2 | B,2 B,2 | A,4 | z2 C2 | %11
 C2 D2 | C2 A,2 | G,2 G,2 | G,4 | z2 G,2 | F,2 A,2 | G,2 G,2 | F,2 F,2 | E,4 | F,4 | (F,2 E,2) | %22
 F,4 |] %23
V:4
 z2 F,2 | D,2 A,,2 | B,,2 F,2 | D,2 C,2 | F,,4 | z2 F,2 | F,2 D,2 | E,2 F,2 | G,2 C,2 | F,4 | %10
 z2 E,2 | F,2 F,2 | E,2 F,2 | G,2 G,,2 | C,4 | z2 E,2 | F,2 D,2 | B,,2 B,,2 | A,,2 B,,2 | C,4 | %20
 A,,4 | (G,,2 C,2) | F,,4 |] %23

